X:1
T:27
T:27
T:Études enfantines op. 37
T:Henry Lemoine
C:Henry Lemoine
%%score { 1 | ( 2 3 ) }
L:1/8
Q:1/4=120
M:2/4
K:G
V:1 treble nm="Piano" snm="Pno."
V:2 bass 
V:3 bass 
V:1
!p!"^Allegretto" (d/b/ | .!3!g) (!1!B/c/ .d)(!1!d/b/ | .g) (!1!B/c/ .d)(!2!d/g/ | %3
 .f) (!1!A/!2!c/ .e) (!3!d/^c/) | (!>!d2 .B) (!1!d/b/ | .g) (B/c/ .d)d/b/ | %6
 .g (!1!B/c/ .d)(!2!d/g/ | .f) (!1!A/!5!e/ .d) (!2!F/!4!A/ | G2) z ::!f!(!3!x/^c/ | %10
 .!1!d) (!4!a/^g/ .a) (!1!d/!2!^c/ | .!1!d) (!5!b/^a/ .b) (!1!d/!2!^c/ | %12
 .!1!d) (!5!=c'/a/ f/!1!d/!3!c/A/ | !2!^A2 .!1!B) (!3!d/^c/ | .!1!d) (!4!a/^g/ .a) (!1!d/!2!^c/ | %15
 .!1!d) (!5!b/^a/ .b) (!1!d/!2!e/ |"_cresc." f/!1!g/a/b/ !1!c'/d'/e'/f'/ | .g') z z!fine! :: %18
!p! (!1!G/!3!c/ | .e) (!1!G/!3!c/ .e) (!1!G/!3!c/) | (!>!e2 .d) (!1!G/!3!B/ | %21
 .d) (!1!G/!3!B/ .d) (!1!G/!3!B/) | (!>!d2 .c)!p! (!1!G/!3!c/ | .e) (!1!G/!3!c/ .e) (!1!G/!3!c/) | %24
 (!>!e2 .d) (!1!G/!3!B/ | .d) (!1!B/!2!d/ g/=f/d/B/ | c2) z :| z |!f! (!2!!4![d=f]4 | %29
 [ce]2) z!p! (!4!e/c/ | .B).d .B.d | (!1!c/d/e/=f/ .g) z | (!>!!2!!4![d=f]4 | [ce]2) z (!4!e/c/ | %34
 .A) (!^![d=f]2 .B) | !^!c2 z!D.C.! |] %36
V:2
 z | !3!B,3 D | B,3 D | C3 D | (B,2 .D) z | !3!B,3 D | B,3 D | C3 D | B,D B, :: z | %10
 z [F,C] [F,C]2 | z [G,B,] [G,B,]2 | z [F,A,] [F,A,]2 | z [G,B,] [G,B,]2 | z [F,C] [F,C]2 | %15
 z [G,B,] [G,B,]2 | z [A,C][A,C][A,C] | .[G,B,].[B,D] .[G,B,] :: z | .[CE] z .[CE] z | %20
 z .[G,B,=F] .[G,B,F] z | .[G,B,=F] z .[G,B,F] z | z .[CE] .[CE] z | .[CE] z .[CE] z | %24
 z .[G,B,=F] .[G,B,F] z | .[G,B,=F] z .[G,B,F] z | z .!3!!1![CE] .[CE] :|!f! (!5!G,,/A,,/ | %28
 B,,/!1!C,/!3!D,/E,/ =F,/G,/!3!A,/B,/ |[K:treble] .!1!C).!3!E !^!G2 |!p! [=FG]2 [FG]2 | %31
 [EG]3[K:bass]!f! (!5!G,,/A,,/ | B,,/!1!C,/!3!D,/E,/ =F,/G,/!3!A,/B,/ | %33
[K:treble] .!1!C).!3!E !^!G2 | .=F z [G,DF]2 | .[CE].[EG] .[CE] |] %36
V:3
 x | !5!G,4 | G,4 | G,4 | G,4 | !5!G,4 | G,4 | G,4 | G,3 :: x | D,4 | D,4 | D,4 | D,4 | D,4 | D,4 | %16
 D,4 | x3 :: x | x4 | x4 | x4 | x4 | x4 | x4 | x4 | x3 :| x | x4 |[K:treble] x4 | x4 | %31
 x3[K:bass] x | x4 |[K:treble] x4 | x4 | x3 |] %36

